X:1
T:Title
%%score 1 { 2 | 3 }
L:1/8
Q:1/4=108
M:4/4
K:Ab
V:1 treble nm="Grand Piano, Soprano"
V:2 bass nm="Choir Pad, Lorimer, 87.87 D"
V:3 bass 
V:1
 [CE]2 [CA]2 [EA]>[EB] [Ec]2 | E2 [DF]2 [FA]4 | [EA]>[EB] [Ec]2- [Ec][Ec] [EB]2 | [=DA]2 [EB]6 | %4
w: By~Green~Hamon~Riddle,~1903 * * * *||||
 [Ec]>d [Ae]2 [Ae]>[Ae] [Ad]2 | [Ac]2 [FB]2 [FA]4 | [DF]>[DF] [CE]2 [EA]2 [Ac]2- | [Ac][EB] [EA]6 | %8
w: ||||
 [_Gc]2 [Fd]2 [Fd]>[Fd] [Ec]2 | [EB]2 [Ec]2 [Ae]4 | [Ac]>[GB] [FA]2- [FA][FA] [AB]2 | [Ac]2 [GB]6 | %12
w: ||||
 [Ac]>B [EA]2 [EA]>[EA] [_GB]2 | [_Gc]2 [Fe]2 [Fd]4 | [EA]>[FB] [Ec]2 E2 [Ac]2- | [Ac][EB] [EA]6- | %16
w: ||||
 [EA]2 z2 z4 |] %17
w: |
V:2
 A,2 A,2 A,>G, A,2 | A,2 A,2 D4 | A,>G, A,2- A,/ z/ A, B,2 | B,2 G,6 | A,>B,[K:treble] C2 C>C F2 | %5
 E2 D2 D4 | A,>A, A,2 C2 E2- | ED C6 | A,2 A,2 A,>A, A,2 | G,2 A,2[K:treble] C4 | E>D C2- CC =D2 | %11
 =D2 E6 | E>D C2 C>C[K:bass] A,2 | A,2 A,2 A,4 | A,>A, A,2[K:treble] C2 E2- | ED C6- | C2 z2 z4 |] %17
V:3
 A,,2 A,,2 C,>E, z2 | C,2 D,2 D,4 | D,>E, z2 z2 G,2 | F,2 E,6 | z2 A,2 A,>A, A,2 | A,2 D,2 D,4 | %6
 D,>D, E,2 E,2 E,2- | E,E, A,,6 | z2 D,E, F,>G, z2 | E,2 z2 A,4 | A,>E, F,2- F,F, B,,2 | B,,2 E,6 | %12
 A,2 A,2 A,>A, z2 | z2 D,2 D,4 | C,>D, E,2 E,2 E,2- | E,E, A,,6- | A,,2 z2 z4 |] %17

